svgs/thin/swords.svg

<svg xmlns="http://www.w3.org/2000/svg" viewBox="0 0 512 512"><!--! Font Awesome Pro 6.3.0 by @fontawesome - https://fontawesome.com License - https://fontawesome.com/license (Commercial License) Copyright 2023 Fonticons, Inc. --><path d="M296.4 373.7c3.125-3.125 3.125-8.188 0-11.31L28.38 94.3L16.05 21.62C15.75 19.47 16.78 18.06 17.42 17.42C18.06 16.8 19.39 15.73 21.39 16.02l72.91 12.36l268 268c3.125 3.125 8.188 3.125 11.31 0s3.125-8.188 0-11.31L103.8 15.27C102.6 14.09 101.1 13.31 99.5 13.03L23.84 .2031C17.33-.7187 10.8 1.422 6.109 6.109C1.438 10.8-.7188 17.25 .2344 24.08L13.03 99.5c.2813 1.625 1.062 3.141 2.234 4.312l152.2 152.2L138.3 285.1c-3.125 3.125-3.125 8.188 0 11.31C139.9 297.1 141.1 298.8 144 298.8s4.094-.7813 5.656-2.344l29.1-29.12l65.93 65.93l-29.12 29.1c-3.125 3.125-3.125 8.188 0 11.31C217.1 375.2 219.2 376 221.2 376s4.094-.7813 5.656-2.344l29.12-29.1l29.1 29.1C286.7 375.2 288.7 376 290.8 376S294.9 375.2 296.4 373.7zM293.7 152.4l124-124l72.67-12.33c2.125-.25 3.562 .7344 4.203 1.375s1.672 2.047 1.406 3.969l-12.36 72.91l-124 124c-3.125 3.125-3.125 8.188 0 11.31C361.1 231.2 363.2 232 365.2 232s4.094-.7813 5.656-2.344l125.8-125.8c1.172-1.172 1.953-2.688 2.234-4.312l12.83-75.66c.9219-6.594-1.234-13.05-5.906-17.73c-4.688-4.688-11-6.75-17.97-5.875L412.5 13.03c-1.625 .2813-3.141 1.062-4.312 2.234L282.3 141.1c-3.125 3.125-3.125 8.188 0 11.31S290.5 155.5 293.7 152.4zM88.39 295C83.86 290.5 78.11 287.6 71.41 288C65.05 288 59.11 290.5 54.72 295L37.2 312.5c-7.516 7.516-9.172 18.86-4.125 28.19l28.62 53.38L7 448.7c-9.344 9.344-9.344 24.56 0 33.91L29.38 505c4.672 4.672 10.81 7.016 16.95 7.016S58.61 509.7 63.3 505l54.69-54.66l53.41 28.61c9.344 5 20.7 3.391 28.22-4.141l17.39-17.5c9.312-9.312 9.312-24.47 0-33.78L88.39 295zM205.7 446l-17.39 17.5c-2.453 2.485-6.188 3.016-9.312 1.344l-63.89-34.23l-63.09 63.05c-3.062 3.094-8.234 3.078-11.3 .0156l-22.38-22.36c-3.062-3.062-3.062-8.219 0-11.28l63.11-63.06l-34.27-63.86c-1.656-3.094-1.109-6.828 1.359-9.297l17.56-17.56C67.5 304.8 69.44 304 71.5 304c0 0-.0156 0 0 0c2.094 0 4.094 .8281 5.578 2.312l128.6 128.5C208.8 437.9 208.8 442.9 205.7 446zM505 448.7l-54.66-54.69l28.61-53.41c5.047-9.359 3.391-20.69-4.141-28.22l-17.5-17.39c-9.281-9.281-24.44-9.312-33.78 0L295 423.6C290.5 428.1 287.1 434.2 288 440.6c.0313 6.359 2.531 12.3 7 16.69l17.52 17.52C320 482.3 331.4 483.1 340.7 478.9l53.38-28.62l54.66 54.7c4.672 4.672 10.81 7.016 16.95 7.016s12.28-2.344 16.95-7.016l22.36-22.38C514.3 473.3 514.3 458.1 505 448.7zM493.7 471.3l-22.36 22.38c-3.062 3.062-8.219 3.062-11.28 0l-63.06-63.11l-63.86 34.27c-3.094 1.625-6.828 1.094-9.297-1.359l-17.56-17.56C304.8 444.5 304 442.6 304 440.5c0-2.109 .8125-4.094 2.312-5.594l128.5-128.6c3.047-3.078 8.062-3.094 11.17 .0156l17.5 17.39c2.469 2.469 3.016 6.203 1.344 9.312l-34.23 63.89l63.05 63.09C496.7 463.1 496.8 468.3 493.7 471.3z"/></svg>

<svg xmlns="http://www.w3.org/2000/svg" viewBox="0 0 512 512"><!-- Font Awesome Pro 6.0.0-alpha2 by @fontawesome - https://fontawesome.com License - https://fontawesome.com/license (Commercial License) --><path d="M296.43 373.656C299.555 370.531 299.555 365.469 296.43 362.344L28.383 94.297L16.055 21.625C15.758 19.469 16.789 18.062 17.43 17.422C18.07 16.797 19.398 15.734 21.398 16.016L94.305 28.375L362.352 296.422C365.477 299.547 370.539 299.547 373.664 296.422S376.789 288.234 373.664 285.109L103.82 15.266C102.648 14.094 101.133 13.312 99.508 13.031L23.852 0.203C17.336 -0.719 10.805 1.422 6.117 6.109C1.445 10.797 -0.711 17.25 0.242 24.078L13.039 99.5C13.32 101.125 14.102 102.641 15.273 103.812L167.455 255.994L138.352 285.109C135.227 288.234 135.227 293.297 138.352 296.422C139.914 297.984 141.961 298.766 144.008 298.766S148.102 297.984 149.664 296.422L178.768 267.307L244.701 333.24L215.586 362.344C212.461 365.469 212.461 370.531 215.586 373.656C217.148 375.219 219.195 376 221.242 376S225.336 375.219 226.898 373.656L256.014 344.553L285.117 373.656C286.68 375.219 288.727 376 290.773 376S294.867 375.219 296.43 373.656ZM293.664 152.422L417.711 28.375L490.383 16.047C492.508 15.797 493.945 16.781 494.586 17.422S496.258 19.469 495.992 21.391L483.633 94.297L359.586 218.344C356.461 221.469 356.461 226.531 359.586 229.656C361.148 231.219 363.195 232 365.242 232S369.336 231.219 370.898 229.656L496.742 103.812C497.914 102.641 498.695 101.125 498.977 99.5L511.805 23.844C512.727 17.25 510.57 10.797 505.898 6.109C501.211 1.422 494.898 -0.641 487.93 0.234L412.508 13.031C410.883 13.313 409.367 14.094 408.195 15.266L282.352 141.109C279.227 144.234 279.227 149.297 282.352 152.422S290.539 155.547 293.664 152.422ZM88.398 295C83.867 290.469 78.117 287.609 71.414 288C65.055 288.031 59.117 290.531 54.727 295L37.211 312.516C29.695 320.031 28.039 331.375 33.086 340.703L61.711 394.078L7.008 448.734C-2.336 458.078 -2.336 473.297 7.008 482.641L29.383 505C34.055 509.672 40.195 512.016 46.336 512.016S58.617 509.672 63.305 505L117.992 450.344L171.398 478.953C180.742 483.953 192.102 482.344 199.617 474.813L217.008 457.313C226.32 448 226.32 432.844 217.008 423.531L88.398 295ZM205.68 446.016L188.289 463.516C185.836 466 182.102 466.531 178.977 464.859L115.086 430.625L51.992 493.672C48.93 496.766 43.758 496.75 40.695 493.688L18.32 471.328C15.258 468.266 15.258 463.109 18.32 460.047L81.43 396.984L47.164 333.125C45.508 330.031 46.055 326.297 48.523 323.828L66.086 306.266C67.508 304.812 69.43 304.016 71.492 304C71.492 304 71.508 304 71.523 304C73.617 304 75.602 304.828 77.086 306.312L205.695 434.844C208.773 437.922 208.773 442.922 205.68 446.016ZM505.008 448.703L450.352 394.016L478.961 340.609C484.008 331.25 482.352 319.922 474.82 312.391L457.32 295C448.039 285.719 432.883 285.688 423.539 295L295.008 423.609C290.461 428.141 287.977 434.188 288.008 440.594C288.039 446.953 290.539 452.891 295.008 457.281L312.523 474.797C320.008 482.312 331.383 483.953 340.711 478.922L394.086 450.297L448.742 505C453.414 509.672 459.555 512.016 465.695 512.016S477.977 509.672 482.648 505L505.008 482.625C514.352 473.281 514.352 458.062 505.008 448.703ZM493.695 471.312L471.336 493.688C468.273 496.75 463.117 496.75 460.055 493.688L396.992 430.578L333.133 464.844C330.039 466.469 326.305 465.938 323.836 463.484L306.273 445.922C304.82 444.5 304.023 442.578 304.008 440.516C304.008 438.406 304.82 436.422 306.32 434.922L434.852 306.312C437.898 303.234 442.914 303.219 446.023 306.328L463.523 323.719C465.992 326.187 466.539 329.922 464.867 333.031L430.633 396.922L493.68 460.016C496.742 463.078 496.758 468.25 493.695 471.312Z"/></svg>
